X: 148
T:John Brown's Body
% Nottingham Music Database
S:Trad, via EF
M:6/8
K:D
F/2G/2|"D"A2A "A7"A2G|"D"F2A d2e|"D"f2f f2e|"D7"d3 d2A|"G"B2A B2c|"G"d2e d2B|\
"D"A2B "A7"A2G|
"D"F3 "A7"F2G|"D"A2A "A7"A2G|"D"F2A d2e|"F#7"f2f f2e|"Bm"d3 d2d|"E7"e3 e3|\
"A7"d3 c3|"D"d3 d2d|"D"d3 d2||<end>
<start>
